X: 711
T: Ey Gül-i Bağ-ı Edâ
C: Dede Efendi
O: Turkey
F: http://compmusic.upf.edu/node/140
N: huzzam--sarki--aksak--ey_gul-i--dede_efendi
N: makam= huzzam
N: form= sarki
N: usul= aksak = 9/8
M: 9/8
L: 1/16
K: C _1/4B _3/4e ^3/4f 
Q: 1/4=180
%%MIDI tuningsystem comma53
BcBA G4 dcBc d3/2e/de dc | de fgag2ffe2dd4z2  | 
w:  ARANAĞME  |   | 
d3/2c/de f3/2e/fg a3/2g/a_b agfe dc | \
w:   | 
Bc def2 eddc cBB4z2  | 
w:   | 
BcBA G4 dcBc d3/2e/de dc | de fgag2ffe2dd4z2  | 
w:  ARANAĞME  |   | 
d3/2c/de f3/2e/fg a3/2g/a_b agfe dc | \
w:   | 
Bc def2 eddc cBB3cBc  | 
w:   | 
d4 B2c2 d4 d6 | d2 {e}dcd2 e2g2 f2e2 d2cB  | \
w:  *  Ey  gül_ i  bâğ_  |  ı  *  *  *  *  e dâ    | 
B4 ffg2 {a}g2f2 e4 d2 | 
w:  *  Sa na  *  *  ol *  dum   | 
d3cc3BB4d4cB  | B3/2A/G2 B2c2 d4 d6 | \
w:  müp *  te *  lâ   SAZ  |  *  *  *  Ey  gül_ i  bağ_  | 
d2 {e}dcd2 e2g2 f2e2 d2c2  | 
w:  ı  *  *  *  *  e dâ    | 
B4 ffg2 {a}g2f2 a2g2 f2 | f3ee2 d2d2 {f}edd4e^1/4f  | \
w:  *  Sa na  *  *  ol *  dum   |  müp *  te *  lâ   *  *  *  *  SAZ  | 
g4 =f2{f}g2 g4 g6 | 
w:  *  Gel  *  ba na  ey  | 
g2 {a}g=fg2 a2a2 g2f4g2  | g=f2e f2g2 {a}g2f2 a2g2 f2 | \
w:  le  *  *  *  *  ve fâ    |  *  *  *  Sa na  *  ol *  dum   | 
=f3ee2 {f}edd2 {f}edd4e^3/4f  | 
w:  müp *  te *  *  *  lâ   *  *  *  *  SAZ  | 
g4 f2g2 g4 f2e2 d2 | d2 {e}dcd2 edg2 f2e2 d2c2  | \
w:  *  Sev di ğim   |  say *  *  *  *  dı *  ğım    | 
B4 g2g2 g2{a}f2 e4 d2 | 
w:  *  Sa na  ol *  *  dum   | 
d3cc2 {d}cBB4de fgfa  | g4 f3g g2{a}g2 f2e2 d2 | \
w:  müp *  te *  *  *  lâ   SAZ  |  *  Sev di ğim   | 
d2 {e}dcd2 e2g2 f2e2 d2c2  | 
w:  say *  *  *  *  dı ğım    | 
B4 ffg2 g2{a}f2 e4 d2 | d3cc2 {d}cBB8-B2  | \
w:  *  Sa na  *  ol *  *  dum   |  müp *  te *  *  *  lâ    | 
BcBA G4 dcBc d3/2e/de dc | 
w:  ARANAĞME  | 
de fgag2ffe2dd4z2  | d3/2c/de f3/2e/fg a3/2g/a_b agfe dc | 
w:   |   | 
Bc def2 eddc cBB4z2  | BcBA G4 dcBc d3/2e/de dc | 
w:   |  ARANAĞME  | 
de fgag2ffe2dd4z2  | d3/2c/de f3/2e/fg a3/2g/a_b agfe dc | 
w:   |   | 
Bc def2 eddc cBB3cBc  | d4 B2c2 d4 d6 | \
w:   |  *  Ey  gül_ i  bâğ_  | 
d2 {e}dcd2 e2g2 f2e2 d2cB  | 
w:  ı  *  *  *  *  e dâ    | 
B4 ffg2 {a}g2f2 e4 d2 | d3cc3BB4d4cB  | \
w:  *  Sa na  *  *  ol *  dum   |  müp *  te *  lâ   SAZ  | 
B3/2A/G2 B2c2 d4 d6 | 
w:  *  *  *  Ey  gül_ i  bağ_  | 
d2 {e}dcd2 e2g2 f2e2 d2c2  | B4 ffg2 {a}g2f2 a2g2 f2 | \
w:  ı  *  *  *  *  e dâ    |  *  Sa na  *  *  ol *  dum   | 
f3ee2 d2d2 {f}edd4e^1/4f  | 
w:  müp *  te *  lâ   *  *  *  *  SAZ  | 
g4 =f2{f}g2 g4 g6 | g2 {a}g=fg2 a2a2 g2f4g2  | \
w:  *  Gel  *  ba na  ey  |  le  *  *  *  *  ve fâ    | 
g=f2e f2g2 {a}g2f2 a2g2 f2 | 
w:  *  *  *  Sa na  *  ol *  dum   | 
=f3ee2 {f}edd2 {f}edd4e^3/4f  | g4 f2g2 g4 f2e2 d2 | \
w:  müp *  te *  *  *  lâ   *  *  *  *  SAZ  |  *  Sev di ğim   | 
d2 {e}dcd2 edg2 f2e2 d2c2  | 
w:  say *  *  *  *  dı *  ğım    | 
B4 g2g2 g2{a}f2 e4 d2 | d3cc2 {d}cBB4de fgfa  | \
w:  *  Sa na  ol *  *  dum   |  müp *  te *  *  *  lâ   SAZ  | 
g4 f3g g2{a}g2 f2e2 d2 | 
w:  *  Sev di ğim   | 
d2 {e}dcd2 e2g2 f2e2 d2c2  | B4 ffg2 g2{a}f2 e4 d2 | \
w:  say *  *  *  *  dı ğım    |  *  Sa na  *  ol *  *  dum   | 
d3cc2 {d}cBB8-B2  | 
w:  müp *  te *  *  *  lâ    | 
|


